modules/hawcons-filled/icons/icon-38-sunglasses.svg

<?xml version="1.0" encoding="UTF-8" standalone="no"?>
<svg width="32px" height="32px" viewBox="0 0 32 32" version="1.1" xmlns="http://www.w3.org/2000/svg" xmlns:xlink="http://www.w3.org/1999/xlink" xmlns:sketch="http://www.bohemiancoding.com/sketch/ns">
    <!-- Generator: Sketch 3.0.3 (7891) - http://www.bohemiancoding.com/sketch -->
    <title>icon 38 sunglasses</title>
    <desc>Created with Sketch.</desc>
    <defs></defs>
    <g id="Page-1" stroke="none" stroke-width="1" fill="none" fill-rule="evenodd" sketch:type="MSPage">
        <g id="icon-38-sunglasses" sketch:type="MSArtboardGroup" fill="#929292">
            <path d="M15.0184554,12.9754384 C10.6510955,11.7719065 4.49333538,11.8281403 1.32561077,12.361913 C0.943093201,12.4263686 0.883046134,14.1847483 1.22323817,14.2462718 C1.84933083,14.4994727 2.11644713,15.1313222 2.11644713,15.1313222 C2.11644713,15.1313222 2.30339395,15.6919912 2.84630809,17.9721018 C3.38922221,20.2522125 4.68352178,20.5256229 4.68352178,20.5256229 C4.68352178,20.5256229 6.2676914,20.9176315 8.09512239,20.9176314 C9.92255338,20.9176314 11.0157186,20.8345422 12.1860571,20.2491472 C13.3563956,19.6637523 13.8679128,18.0334083 13.8679128,18.0334083 C13.8679128,18.0334083 14.4575765,16.6285553 14.8635328,15.3029802 C14.9908358,14.8872958 16.9280921,14.8872958 17.0553951,15.3029802 C17.4613515,16.6285553 18.0510151,18.0334083 18.0510151,18.0334083 C18.0510151,18.0334083 18.5625324,19.6637523 19.7328708,20.2491472 C20.9032093,20.8345422 21.9963746,20.9176314 23.8238055,20.9176314 C25.6512365,20.9176315 27.2354061,20.5256229 27.2354061,20.5256229 C27.2354061,20.5256229 28.5297057,20.2522125 29.0726198,17.9721018 C29.615534,15.6919912 29.8024808,15.1313222 29.8024808,15.1313222 C29.8024808,15.1313222 30.0695971,14.4994727 30.6956898,14.2462718 C31.0358818,14.1847483 30.9758347,12.4263686 30.5933172,12.361913 C27.4255925,11.8281403 21.2678325,11.7719065 16.9004725,12.9754384 C16.6040978,13.0433095 15.3148302,13.0433095 15.0184554,12.9754384 Z" id="sunglasses" sketch:type="MSShapeGroup"></path>
        </g>
    </g>
</svg>

<svg width="32" height="32" xmlns="http://www.w3.org/2000/svg"><path d="M15.018 12.975c-4.367-1.203-10.525-1.147-13.692-.613-.383.064-.443 1.823-.103 1.884.626.253.893.885.893.885s.187.561.73 2.841c.543 2.28 1.838 2.554 1.838 2.554s1.584.392 3.411.392c1.828 0 2.92-.083 4.091-.669 1.17-.585 1.682-2.216 1.682-2.216s.59-1.404.996-2.73c.127-.416 2.064-.416 2.191 0 .406 1.326.996 2.73.996 2.73s.512 1.63 1.682 2.216c1.17.586 2.263.669 4.09.669 1.828 0 3.412-.392 3.412-.392s1.295-.274 1.838-2.554c.543-2.28.73-2.84.73-2.84s.267-.633.893-.886c.34-.061.28-1.82-.103-1.884-3.167-.534-9.325-.59-13.693.613-.296.068-1.585.068-1.882 0z" fill="#929292" fill-rule="evenodd"/></svg>
